X:1
C: Björn Lindström
T:Gopen
R:Vals
O: Gopa Bjursås socken, Dalarna
M:3/4
L:1/8
K:D
N: Examenspresent till brodern Frej Lindström år 2017. Komponerad på durspel. 
"D" FE FA A2 | FE FA A2 |"G" B2 D2 D2 | D6 |"D" FE FA A2 | FE FA A2 |"G" D6-| D6 :: %8
"D" F3 E F2 |"A" E4 F2 |"G" B,6 | D6 |"D" F3 E F2 |"A" E4 F2 |"G" B,6- | B,6 :| %16

